X:1
T:The Titanic
M:6/8
L:1/8
K:C
 EE| CE A- G2 E| D2 C2- C2| c2 c cBA| G3- G2 B| c2 c/2c/2 cBA| G2 E2- EG|\
 GGG E D2| B, C- C2||
